X: 8
T:La Rosa Enflorece
M:4/4
L:1/8
Q:1/4=100
K:APhr
 A| d3   e f>e df |   e>d^cB A3
 A| d3   e fe  df |   e4     z2||
ef| g>e eg f>e df |   ed^cB  A3
 A|^c B2 A GA  B^c|[1 AB^cd  e2:|\
                   [2 A4     z3|]

A Bosnian "sevdah" love song.  I've included Zero's chords, which show
a typical "three-chord trick" for the hijaz scale.

